brandFactory_export/2.Regular/Pausa_2Regular.svg

<?xml version="1.0" encoding="UTF-8"?>
<svg width="24px" height="24px" viewBox="0 0 24 24" version="1.1" xmlns="http://www.w3.org/2000/svg" xmlns:xlink="http://www.w3.org/1999/xlink">
    <title>2.Regular/Pausa_2Regular</title>
    <g id="Symbols" stroke="none" stroke-width="1" fill="none" fill-rule="evenodd">
        <g id="2.Regular/Pausa_2Regular" fill="#5CB615" fill-rule="nonzero">
            <path d="M11.794958,-5.32907052e-14 C15.5428571,-5.32907052e-14 18.4571429,0.978151261 20.4605042,2.90756303 C22.5411765,4.91092437 23.5932773,7.90252101 23.5932773,11.7983193 C23.5932773,15.6941176 22.5378151,18.6823529 20.4605042,20.6857143 C18.4571429,22.6151261 15.5428571,23.5932773 11.794958,23.5932773 C8.04705882,23.5932773 5.13277311,22.6151261 3.13277311,20.6857143 C1.05546218,18.6857143 0.00336134453,15.697479 0.00336134453,11.8016807 C0.00336134453,7.90588235 1.05546218,4.91428571 3.13277311,2.91092437 C5.13277311,0.981512605 8.05042017,-5.32907052e-14 11.794958,-5.32907052e-14 Z M11.794958,1.30756303 C4.83697479,1.30756303 1.30756303,4.83697479 1.30756303,11.8016807 C1.30756303,18.7596639 4.83697479,22.2890756 11.794958,22.2890756 C18.7563025,22.2890756 22.2890756,18.7596639 22.2890756,11.8016807 C22.2890756,4.84033613 18.7563025,1.30756303 11.794958,1.30756303 Z M8.5210084,6.53781513 C8.8907563,6.53781513 9.19327731,6.84033613 9.19327731,7.21008403 L9.19327731,16.3865546 C9.19327731,16.7563025 8.8907563,17.0588235 8.5210084,17.0588235 C8.1512605,17.0588235 7.8487395,16.7563025 7.8487395,16.3865546 L7.8487395,7.21008403 C7.8487395,6.84033613 8.1512605,6.53781513 8.5210084,6.53781513 Z M15.0756303,6.53781513 C15.4453782,6.53781513 15.7478992,6.84033613 15.7478992,7.21008403 L15.7478992,16.3865546 C15.7478992,16.7563025 15.4453782,17.0588235 15.0756303,17.0588235 C14.7058824,17.0588235 14.4033613,16.7563025 14.4033613,16.3865546 L14.4033613,7.21008403 C14.4033613,6.84033613 14.7058824,6.53781513 15.0756303,6.53781513 Z" id="Pausa_2Regular"></path>
        </g>
    </g>
</svg>

<svg width="24" height="24" viewBox="0 0 24 24" xmlns="http://www.w3.org/2000/svg"><path d="M11.795 0c3.748 0 6.662.978 8.666 2.908 2.08 2.003 3.132 4.995 3.132 8.89 0 3.896-1.055 6.884-3.132 8.888-2.004 1.93-4.918 2.907-8.666 2.907s-6.662-.978-8.662-2.907c-2.078-2-3.13-4.989-3.13-8.884 0-3.896 1.052-6.888 3.13-8.891C5.133.98 8.05 0 11.795 0zm0 1.308c-6.958 0-10.487 3.529-10.487 10.494 0 6.958 3.529 10.487 10.487 10.487 6.961 0 10.494-3.53 10.494-10.487 0-6.962-3.533-10.494-10.494-10.494zm-3.274 5.23c.37 0 .672.302.672.672v9.177c0 .37-.302.672-.672.672a.674.674 0 01-.672-.672V7.21c0-.37.302-.672.672-.672zm6.555 0c.37 0 .672.302.672.672v9.177c0 .37-.303.672-.672.672a.674.674 0 01-.673-.672V7.21c0-.37.303-.672.673-.672z" fill="#5CB615" fill-rule="nonzero"/></svg>
